img/github-icon.svg

<svg width="44" height="43" viewBox="0 0 44 43" fill="none" xmlns="http://www.w3.org/2000/svg">
<path fill-rule="evenodd" clip-rule="evenodd" d="M22.2502 41.6432C33.341 41.6432 42.3319 32.6523 42.3319 21.5615C42.3319 10.4706 33.341 1.47974 22.2502 1.47974C11.1593 1.47974 2.16846 10.4706 2.16846 21.5615C2.16846 32.6523 11.1593 41.6432 22.2502 41.6432ZM16.8824 38.7166C18.5775 39.2465 20.3805 39.532 22.2502 39.532C24.1075 39.532 25.899 39.2502 27.5843 38.7271V34.3342C27.5848 33.6255 27.4441 32.9239 27.1704 32.2702C26.8967 31.6165 26.4956 31.0239 25.9903 30.527C31.8893 29.4895 34.3577 25.8957 34.3577 21.6199C34.3577 19.5448 33.6674 17.6245 32.3118 16.0849C33.0777 13.7036 32.2844 11.6684 32.1036 11.2047C32.0948 11.1821 32.0874 11.1632 32.0817 11.1482C29.8226 10.9432 27.4797 12.625 27.0069 12.9848C25.6138 12.6083 24.0323 12.4033 22.2584 12.4033C20.4929 12.4033 18.9157 12.5999 17.5351 12.9722C17.3384 12.8174 14.8115 10.8595 12.3807 11.077C12.3762 11.0888 12.3705 11.103 12.3639 11.1197C12.1894 11.5581 11.3535 13.6589 12.1757 16.0975C10.837 17.6329 10.155 19.5365 10.155 21.6074C10.155 25.8747 12.6067 29.4644 18.4889 30.5186C17.7861 31.2006 17.2757 32.0792 17.0372 33.0623C15.9453 33.3343 13.7906 33.6104 12.6862 31.9746C11.1591 29.7196 9.84125 28.887 8.54848 29.5522C8.2615 29.8833 8.63265 30.1329 9.16038 30.4878C9.6328 30.8055 10.2307 31.2076 10.5943 31.8281C10.65 31.92 10.7025 32.0789 10.7694 32.2812C11.1591 33.4608 12.0361 36.1153 16.8824 35.5474V38.7166Z" fill="#928A97"/>
</svg>

<svg width="44" height="43" fill="none" xmlns="http://www.w3.org/2000/svg"><path fill-rule="evenodd" clip-rule="evenodd" d="M22.25 41.643c11.091 0 20.082-8.99 20.082-20.082 0-11.09-8.991-20.081-20.082-20.081-11.09 0-20.082 8.99-20.082 20.081S11.16 41.644 22.25 41.644Zm-5.368-2.926c1.695.53 3.498.815 5.368.815 1.858 0 3.649-.282 5.334-.805v-4.393a5.334 5.334 0 0 0-1.594-3.807c5.9-1.038 8.368-4.631 8.368-8.907 0-2.075-.69-3.995-2.046-5.535.766-2.381-.028-4.417-.208-4.88-.01-.023-.017-.042-.022-.057-2.26-.205-4.602 1.477-5.075 1.837-1.393-.377-2.975-.582-4.749-.582-1.765 0-3.342.197-4.723.57-.197-.156-2.723-2.114-5.154-1.896l-.017.043c-.175.438-1.01 2.539-.188 4.978-1.339 1.535-2.021 3.439-2.021 5.51 0 4.267 2.452 7.856 8.334 8.91a5.278 5.278 0 0 0-1.452 2.544c-1.092.272-3.246.548-4.35-1.087-1.528-2.255-2.846-3.088-4.139-2.423-.287.331.085.58.612.936.473.317 1.07.72 1.434 1.34.056.092.109.25.175.453.39 1.18 1.267 3.834 6.113 3.266v3.17Z" fill="#928A97"/></svg>
